resources/svg/major-referral-code.svg

<svg xmlns="http://www.w3.org/2000/svg" viewBox="0 0 20 20" fill="currentColor"><path d="M4 3H3V4H1V2.5C1 1.67157 1.67157 1 2.5 1H4V3Z" fill="#5C5F62"/><path d="M16.707 6.255C16.6148 6.15949 16.5044 6.0833 16.3824 6.03089C16.2604 5.97848 16.1292 5.9509 15.9964 5.94974C15.8636 5.94859 15.7319 5.97389 15.609 6.02417C15.4861 6.07445 15.3745 6.14871 15.2806 6.2426C15.1867 6.33649 15.1125 6.44814 15.0622 6.57104C15.0119 6.69394 14.9866 6.82562 14.9877 6.9584C14.9889 7.09118 15.0165 7.2224 15.0689 7.3444C15.1213 7.4664 15.1975 7.57675 15.293 7.669L16.586 8.961H12C11.7348 8.961 11.4804 9.06635 11.2929 9.25389C11.1054 9.44142 11 9.69578 11 9.961C11 10.2262 11.1054 10.4806 11.2929 10.6681C11.4804 10.8556 11.7348 10.961 12 10.961H16.586L15.293 12.254C15.1975 12.3462 15.1213 12.4566 15.0689 12.5786C15.0165 12.7006 14.9889 12.8318 14.9877 12.9646C14.9866 13.0974 15.0119 13.2291 15.0622 13.3519C15.1125 13.4748 15.1867 13.5865 15.2806 13.6804C15.3745 13.7743 15.4861 13.8485 15.609 13.8988C15.7319 13.9491 15.8636 13.9744 15.9964 13.9732C16.1292 13.9721 16.2604 13.9445 16.3824 13.8921C16.5044 13.8397 16.6148 13.7635 16.707 13.668L19.707 10.668C19.8 10.5751 19.8737 10.4648 19.9241 10.3434C19.9744 10.222 20.0003 10.0919 20.0003 9.96049C20.0003 9.82908 19.9744 9.69895 19.9241 9.57755C19.8737 9.45616 19.8 9.34587 19.707 9.253L16.707 6.253V6.255Z" fill="#5C5F62"/><path d="M7 6H7.99691L8 6L8.00309 6H9V14H7V6Z" fill="#5C5F62"/><path d="M19 18C19 18.5523 18.5523 19 18 19H16V17H17V16H19V18Z" fill="#5C5F62"/><path d="M2 19C1.44772 19 1 18.5523 1 18V16H3L3 17H4L4 19H2Z" fill="#5C5F62"/><path d="M17 3V4H19V2.5C19 1.67157 18.3284 1 17.5 1H16V3H17Z" fill="#5C5F62"/><path d="M5 6H1V14H5V6Z" fill="#5C5F62"/></svg>

<svg xmlns="http://www.w3.org/2000/svg" viewBox="0 0 20 20" fill="currentColor"><path d="M4 3h-1v1h-2v-1.5a1.5 1.5 0 0 1 1.5-1.5h1.5v2Z"/><path d="M16.707 6.255a1 1 0 1 0-1.414 1.414l1.293 1.292h-4.586a1 1 0 1 0 0 2h4.586l-1.293 1.293a1 1 0 1 0 1.414 1.414l3-3a1.001 1.001 0 0 0 0-1.415l-3-3v.002Z"/><path d="M7 6h2v8h-2v-8Z"/><path d="M19 18a1 1 0 0 1-1 1h-2v-2h1v-1h2v2Z"/><path d="M2 19a1 1 0 0 1-1-1v-2h2v1h1v2h-2Z"/><path d="M17 3v1h2v-1.5a1.5 1.5 0 0 0-1.5-1.5h-1.5v2h1Z"/><path d="M5 6h-4v8h4v-8Z"/></svg>
